X:68
T:Suite in A minor - Gigue
C:Telemann, G.P.
M:6/8
L:1/8
Q:3/8=120
K:Amin
|:A|A2c e2c|d2B G2E|F2A c2A|B4 A|
G2B d2B|c2A F2D|E2G B2G|A3 A:|

